polaris-icons/icons/new-icons/SectionMajor.svg

<svg width="20" height="20" viewBox="0 0 20 20" fill="none" xmlns="http://www.w3.org/2000/svg">
<path d="M3.5 5.25C3.5 4.2835 4.2835 3.5 5.25 3.5H6.25C6.66421 3.5 7 3.83579 7 4.25C7 4.66421 6.66421 5 6.25 5H5.25C5.11193 5 5 5.11193 5 5.25V6.25C5 6.66421 4.66421 7 4.25 7C3.83579 7 3.5 6.66421 3.5 6.25V5.25Z" fill="#4A4A4A"/>
<path fill-rule="evenodd" clip-rule="evenodd" d="M3.5 9.25C3.5 8.2835 4.2835 7.5 5.25 7.5H14.75C15.7165 7.5 16.5 8.2835 16.5 9.25V10.75C16.5 11.7165 15.7165 12.5 14.75 12.5H5.25C4.2835 12.5 3.5 11.7165 3.5 10.75V9.25ZM5.25 9C5.11193 9 5 9.11193 5 9.25V10.75C5 10.8881 5.11193 11 5.25 11H14.75C14.8881 11 15 10.8881 15 10.75V9.25C15 9.11193 14.8881 9 14.75 9H5.25Z" fill="#4A4A4A"/>
<path d="M3.5 14.75C3.5 15.7165 4.2835 16.5 5.25 16.5H6.25C6.66421 16.5 7 16.1642 7 15.75C7 15.3358 6.66421 15 6.25 15H5.25C5.11193 15 5 14.8881 5 14.75V13.75C5 13.3358 4.66421 13 4.25 13C3.83579 13 3.5 13.3358 3.5 13.75V14.75Z" fill="#4A4A4A"/>
<path d="M14.75 3.5C15.7165 3.5 16.5 4.2835 16.5 5.25V6.25C16.5 6.66421 16.1642 7 15.75 7C15.3358 7 15 6.66421 15 6.25V5.25C15 5.11193 14.8881 5 14.75 5H13.75C13.3358 5 13 4.66421 13 4.25C13 3.83579 13.3358 3.5 13.75 3.5H14.75Z" fill="#4A4A4A"/>
<path d="M14.75 16.5C15.7165 16.5 16.5 15.7165 16.5 14.75V13.75C16.5 13.3358 16.1642 13 15.75 13C15.3358 13 15 13.3358 15 13.75V14.75C15 14.8881 14.8881 15 14.75 15H13.75C13.3358 15 13 15.3358 13 15.75C13 16.1642 13.3358 16.5 13.75 16.5H14.75Z" fill="#4A4A4A"/>
<path d="M11.75 4.25C11.75 4.66421 11.4142 5 11 5L9 5C8.58579 5 8.25 4.66421 8.25 4.25C8.25 3.83579 8.58579 3.5 9 3.5H11C11.4142 3.5 11.75 3.83579 11.75 4.25Z" fill="#4A4A4A"/>
<path d="M11 16.5C11.4142 16.5 11.75 16.1642 11.75 15.75C11.75 15.3358 11.4142 15 11 15H9C8.58579 15 8.25 15.3358 8.25 15.75C8.25 16.1642 8.58579 16.5 9 16.5H11Z" fill="#4A4A4A"/>
</svg>

<svg viewBox="0 0 20 20" xmlns="http://www.w3.org/2000/svg"><path d="M3.5 5.25c0-.966.784-1.75 1.75-1.75h1a.75.75 0 0 1 0 1.5h-1a.25.25 0 0 0-.25.25v1a.75.75 0 0 1-1.5 0v-1Z" fill="#5C5F62"/><path fill-rule="evenodd" d="M3.5 9.25c0-.966.784-1.75 1.75-1.75h9.5c.966 0 1.75.784 1.75 1.75v1.5a1.75 1.75 0 0 1-1.75 1.75h-9.5a1.75 1.75 0 0 1-1.75-1.75v-1.5Zm1.75-.25a.25.25 0 0 0-.25.25v1.5c0 .138.112.25.25.25h9.5a.25.25 0 0 0 .25-.25v-1.5a.25.25 0 0 0-.25-.25h-9.5Z" fill="#5C5F62"/><path d="M3.5 14.75c0 .966.784 1.75 1.75 1.75h1a.75.75 0 0 0 0-1.5h-1a.25.25 0 0 1-.25-.25v-1a.75.75 0 0 0-1.5 0v1Z" fill="#5C5F62"/><path d="M14.75 3.5c.966 0 1.75.784 1.75 1.75v1a.75.75 0 0 1-1.5 0v-1a.25.25 0 0 0-.25-.25h-1a.75.75 0 0 1 0-1.5h1Z" fill="#5C5F62"/><path d="M14.75 16.5a1.75 1.75 0 0 0 1.75-1.75v-1a.75.75 0 0 0-1.5 0v1a.25.25 0 0 1-.25.25h-1a.75.75 0 0 0 0 1.5h1Z" fill="#5C5F62"/><path d="M11.75 4.25a.75.75 0 0 1-.75.75h-2a.75.75 0 0 1 0-1.5h2a.75.75 0 0 1 .75.75Z" fill="#5C5F62"/><path d="M11 16.5a.75.75 0 0 0 0-1.5h-2a.75.75 0 0 0 0 1.5h2Z" fill="#5C5F62"/></svg>
